X:318
T:Highland Whiskey
R:Slow Strathspey
C:Neil Gow
B:The Athole Collection
M:C|
L:1/8
Q:1/4=140
K:A
E|A/A/A A2 A>B c<e|B/B/B ~B2 d>e f<a|A/A/A A2 A>B c<d|ef/g/ a>c B2A:|
||e|c/B/A e>A f>Ae>A|G<BB>G G<BB>e|d/c/B/A/ e>A f>Ae>c|
ef/g/ a<c B2 A>e|c/B/A e>A f>Ae>A|G<BB>G G<BB>c|A<cB<d c<ed<f|
ef/g/ a>c B2A|]

